X:18588
T:Welsh Jigg. JC.025
M:6/8
L:1/8
Q:240
S:John Clare,Poet,Helpston. (1793-1864)
R:Jig
O:England
A:Northamptonshire
N:
Z:P Headford
K:Bb
ABcc2d|c2B cAF|BcB ded|BcB ded|ABcc2d|!
c2B A2A|Bcde2d|cBAB3:||:fdf ece|dBd cAF|!
B2B dcB|A2Bc3|fdf ece|dBd cAF|dcB gfe|decB3:|]


